img/delivery.svg

<svg width="45" height="50" viewBox="0 0 45 50" fill="none" xmlns="http://www.w3.org/2000/svg">
<g clip-path="url(#clip0_406_589)">
<path d="M9.43213 0V7.57143L34.2721 25L9.43213 42.4286V50L45.0001 25L9.43213 0Z" fill="#E0BEA2"/>
<path d="M0 7.35718V42.5715L25.056 25L0 7.35718Z" fill="#E0BEA2"/>
<path d="M6.49228 29C5.9332 28.9927 5.43748 28.868 5.00512 28.6259C4.57277 28.3838 4.21123 28.0646 3.92051 27.6685C3.62978 27.2724 3.40988 26.8469 3.26079 26.392C3.11916 25.9298 3.04834 25.4787 3.04834 25.0385C3.04834 24.569 3.12661 24.0995 3.28315 23.63C3.4397 23.1605 3.66706 22.735 3.96523 22.3535C4.27086 21.9647 4.63613 21.6566 5.06103 21.4292C5.48593 21.1944 5.96301 21.077 6.49228 21.077C7.06627 21.077 7.56571 21.2017 7.99061 21.4512C8.42297 21.7006 8.78451 22.0234 9.07523 22.4195C9.36595 22.8157 9.58213 23.2448 9.72376 23.707C9.87285 24.1692 9.9474 24.613 9.9474 25.0385C9.9474 25.5154 9.86912 25.9885 9.71258 26.458C9.55604 26.9202 9.32495 27.342 9.01932 27.7235C8.72115 28.105 8.35961 28.4131 7.9347 28.6479C7.5098 28.8753 7.02899 28.9927 6.49228 29ZM4.60258 25.0385C4.61004 25.3466 4.65104 25.6547 4.72558 25.9629C4.80758 26.2636 4.92312 26.5424 5.07221 26.7992C5.22875 27.0559 5.4263 27.265 5.66484 27.4264C5.90338 27.5805 6.17919 27.6575 6.49228 27.6575C6.82773 27.6575 7.11472 27.5731 7.35326 27.4044C7.5918 27.2357 7.78562 27.0193 7.9347 26.7552C8.09125 26.4911 8.20679 26.2086 8.28134 25.9078C8.35588 25.6071 8.39315 25.3173 8.39315 25.0385C8.39315 24.7304 8.35215 24.426 8.27015 24.1252C8.19561 23.8171 8.07634 23.5346 7.91234 23.2779C7.7558 23.0211 7.55826 22.8157 7.31972 22.6616C7.08863 22.5002 6.81282 22.4195 6.49228 22.4195C6.16428 22.4195 5.88102 22.5039 5.64247 22.6726C5.40393 22.8414 5.20639 23.0578 5.04985 23.3219C4.90076 23.586 4.78894 23.8684 4.7144 24.1692C4.63986 24.47 4.60258 24.7597 4.60258 25.0385Z" fill="white"/>
<path d="M15.6519 27.5585V28.89H11.1569V27.5585H12.7V22.4746C12.6404 22.5626 12.5397 22.6616 12.3981 22.7717C12.2639 22.8744 12.1074 22.9771 11.9285 23.0798C11.757 23.1751 11.5781 23.2558 11.3917 23.3219C11.2128 23.3879 11.0488 23.4209 10.8998 23.4209V22.0564C11.101 22.0564 11.306 22.005 11.5147 21.9023C11.7235 21.7996 11.9173 21.6823 12.0962 21.5502C12.2751 21.4182 12.4167 21.2971 12.5211 21.1871C12.6329 21.0697 12.6925 21.0073 12.7 21H14.2319V27.5585H15.6519Z" fill="white"/>
</g>
<defs>
<clipPath id="clip0_406_589">
<rect width="45" height="50" fill="white"/>
</clipPath>
</defs>
</svg>

<svg width="45" height="50" fill="none" xmlns="http://www.w3.org/2000/svg"><g clip-path="url(#clip0_406_589)"><path d="M9.432 0v7.571L34.272 25 9.432 42.429V50L45 25 9.432 0z" fill="#E0BEA2"/><path d="M0 7.357v35.215L25.056 25 0 7.357z" fill="#E0BEA2"/><path d="M6.492 29c-.559-.007-1.055-.132-1.487-.374a3.374 3.374 0 01-1.084-.957 4.532 4.532 0 01-.66-1.277 4.607 4.607 0 01-.213-1.354c0-.469.079-.939.235-1.408.157-.47.384-.895.682-1.276.306-.39.671-.697 1.096-.925a2.909 2.909 0 011.431-.352c.574 0 1.074.125 1.499.374.432.25.794.572 1.084.968.291.397.507.826.649 1.288.149.462.223.906.223 1.331 0 .477-.078.95-.234 1.42a4.126 4.126 0 01-.694 1.266 3.53 3.53 0 01-1.084.924A3.1 3.1 0 016.492 29zm-1.89-3.962c.008.309.049.617.124.925.082.3.197.58.346.836a2 2 0 00.593.627c.238.155.514.232.827.232.336 0 .623-.085.861-.254.239-.168.433-.385.582-.649a3.12 3.12 0 00.346-.847 3.458 3.458 0 00-.011-1.783 2.772 2.772 0 00-.358-.847 1.894 1.894 0 00-.592-.616 1.408 1.408 0 00-.828-.242c-.328 0-.611.084-.85.253a2.087 2.087 0 00-.592.649 3.611 3.611 0 00-.447 1.717zm11.05 2.52v1.332h-4.495v-1.332H12.7v-5.083c-.06.088-.16.187-.302.297a4.31 4.31 0 01-.47.308c-.171.095-.35.176-.536.242a1.433 1.433 0 01-.492.099v-1.365c.201 0 .406-.051.615-.154A3.798 3.798 0 0012.7 21h1.532v6.558h1.42z" fill="#fff"/></g><defs><clipPath id="clip0_406_589"><path fill="#fff" d="M0 0h45v50H0z"/></clipPath></defs></svg>
